img/icon_facebook.svg

<svg width="41" height="42" viewBox="0 0 41 42" fill="none" xmlns="http://www.w3.org/2000/svg">
<path fill-rule="evenodd" clip-rule="evenodd" d="M20.5 0.684326C9.17816 0.684326 0 9.8559 0 21.1696C0 32.4833 9.17816 41.6549 20.5 41.6549C31.8218 41.6549 41 32.4833 41 21.1696C41 9.8559 31.8218 0.684326 20.5 0.684326ZM22.6367 22.0694V33.2145H18.0221V22.0699H15.7167V18.2292H18.0221V15.9233C18.0221 12.7901 19.3239 10.927 23.0225 10.927H26.1017V14.7681H24.177C22.7372 14.7681 22.642 15.3048 22.642 16.3065L22.6367 18.2288H26.1235L25.7155 22.0694H22.6367Z" fill="white"/>
</svg>

<svg width="41" height="42" fill="none" xmlns="http://www.w3.org/2000/svg"><path fill-rule="evenodd" clip-rule="evenodd" d="M20.5.684C9.178.684 0 9.856 0 21.17c0 11.313 9.178 20.485 20.5 20.485S41 32.483 41 21.17C41 9.856 31.822.684 20.5.684zm2.137 21.385v11.146h-4.615V22.07h-2.305v-3.84h2.305v-2.307c0-3.133 1.302-4.996 5-4.996h3.08v3.841h-1.925c-1.44 0-1.535.537-1.535 1.538l-.005 1.923h3.486l-.408 3.84h-3.078z" fill="#fff"/></svg>
